X: 35152
T: Rond Loudieg
R: polka
M: 2/4
K: Adorian
"Am"Ae eA|cB AG|Ae eA|"C"c2 "Am"A2|(3 cBA eA|cB AG|Ae eA|"C"c2 "Am"A2||
|:"Am"Ae eA|c2 A z|"C"c2BA|"G"GA BG|Bc dB|d2 cA|cd cA|"Em"GA BG|Bc dB|"C"c2 "Am"A2:|

